icons/hancher-auditorium.svg

<?xml version="1.0" encoding="UTF-8"?><svg id="uuid-b7ef791b-7311-44ab-93b1-0ee8d925c5ca" xmlns="http://www.w3.org/2000/svg" viewBox="0 0 50 50"><path d="M48.92,20.45c-.05-.22-.24-.38-.47-.39-.72-.03-1.45-.05-2.17-.08v-6.46c0-.84-.68-1.52-1.52-1.52H26.86c-.28,0-.5,.22-.5,.5v2.62l-6.66-.76c-.14-.01-.28,.03-.39,.12-.11,.1-.17,.23-.17,.37v4.36c-6.07-.09-12.17-.14-18.25-.13-.28,0-.5,.22-.5,.5v3.21c0,.28,.22,.5,.5,.5,3.28,0,6.59,.03,9.9,.06v3.95l-3.69-.04c-.12-.02-.26,.05-.36,.14s-.15,.22-.15,.36v3.21c0,.27,.22,.5,.5,.5l3.7,.04v4.99h-2.42c-.28,0-.5,.22-.5,.5s.22,.5,.5,.5H48.09c.28,0,.5-.22,.5-.5s-.22-.5-.5-.5h-.83v-4.63h.57c.22,0,.41-.13,.48-.34,.19-.57,.28-1.16,.28-1.75,0-.6-.09-1.2-.28-1.77-.07-.2-.26-.34-.47-.34h-.58v-3.44c.38,.01,.77,.02,1.15,.04h.02c.23,0,.44-.16,.49-.39,.12-.53,.18-1.07,.19-1.62,0-.61-.06-1.22-.19-1.81Zm-21.57-7.45h17.41c.29,0,.52,.23,.52,.52v3.77l-17.93-2.05v-2.24Zm-7.21,6.2v-3.78l25.14,2.88v1.63l-1.23-.04c-6.27-.25-12.58-.45-18.84-.58-.9-.02-1.82-.02-2.72-.04l-2.35-.07Zm-8.36,17.31v-4.98l5.16,.05v4.93h-5.16Zm8.54,0h-2.38v-4.92l2.38,.02v4.9Zm6.39,0h-5.39v-4.89l5.39,.05v4.83Zm6.39,0h-5.39v-4.82l5.39,.05v4.77Zm6.39,0h-5.39v-4.76l5.39,.05v4.71Zm5.86,0h-4.86v-4.7l5.75,.06v4.64h-.9Zm2.09-7.85c.09,.37,.13,.74,.13,1.12,0,.37-.04,.74-.13,1.1l-39.87-.39v-2.21l39.87,.39Zm-35.67-1.35v-3.95c1.72,.02,3.44,.04,5.16,.06v3.93l-5.16-.05Zm6.16,.06v-3.93c.79,.01,1.59,.03,2.38,.04v3.91l-2.38-.02Zm3.38,.03v-3.91c1.23,.02,2.47,.04,3.7,.07,.56,.01,1.13,.03,1.69,.04v3.85l-5.39-.05Zm6.39,.06v-3.83c1.79,.04,3.59,.09,5.39,.14v3.75l-5.39-.05Zm6.39,.06v-3.73c1.8,.05,3.59,.1,5.39,.16v3.62l-5.39-.05Zm6.39,.06v-3.6c1.92,.06,3.84,.13,5.75,.2v3.46l-5.75-.06Zm7.52-4.34c-7.63-.29-15.35-.52-22.97-.68-7.89-.16-15.84-.25-23.66-.27v-2.21c7.93-.02,15.93,.05,23.81,.22,7.58,.16,15.26,.41,22.82,.73,.07,.4,.1,.81,.09,1.21,0,.33-.03,.67-.09,1Z"/></svg>

<svg id="b5bea500-7f9b-4889-859c-cf09ed8d1e38" data-name="ICONS" xmlns="http://www.w3.org/2000/svg" viewBox="0 0 50 50"><path d="M48.92,20.45a.5.5,0,0,0-.46-.4L46.29,20V13.52A1.54,1.54,0,0,0,44.76,12H26.86a.5.5,0,0,0-.5.5v2.63l-6.67-.77a.52.52,0,0,0-.39.13.51.51,0,0,0-.16.37v4.36C13.07,19.12,7,19.07.89,19.09a.5.5,0,0,0-.5.5V22.8a.5.5,0,0,0,.5.5c3.28,0,6.58,0,9.9.06v3.95l-3.69,0a.45.45,0,0,0-.36.14.51.51,0,0,0-.15.36V31a.5.5,0,0,0,.5.5l3.7,0v5H8.37a.5.5,0,0,0-.5.5.5.5,0,0,0,.5.5H48.09a.5.5,0,0,0,.5-.5.5.5,0,0,0-.5-.5h-.83V31.87h.58a.5.5,0,0,0,.47-.35,5.48,5.48,0,0,0,.28-1.75A5.6,5.6,0,0,0,48.31,28a.53.53,0,0,0-.47-.35h-.58V24.23l1.15,0h0a.5.5,0,0,0,.49-.4,7.76,7.76,0,0,0,0-3.42ZM27.36,13h17.4a.53.53,0,0,1,.53.53v3.76L27.36,15.23Zm-7.21,6.2V15.41l25.15,2.88v1.63l-1.23,0c-6.27-.25-12.58-.46-18.84-.59l-2.73,0ZM11.79,36.51v-5l5.16,0v4.93Zm8.54,0H18V31.59l2.38,0Zm6.39,0H21.33V31.62l5.39.05Zm6.39,0H27.72V31.68l5.39.06Zm6.4,0h-5.4V31.75l5.4.05Zm5.86,0H40.51v-4.7l5.75.05v4.65Zm2.09-7.85a4.7,4.7,0,0,1,.13,1.12,4.4,4.4,0,0,1-.13,1.09L7.59,30.49V28.28ZM11.79,27.32V23.37l5.16.06v3.94Zm6.16.06V23.45l2.38,0V27.4Zm3.38,0V23.5l3.7.07,1.69,0v3.85Zm6.39.06V23.64l5.39.13v3.75Zm6.39.06V23.8l5.4.16v3.62Zm6.4.06V24l5.75.19v3.46ZM48,23.25c-7.62-.29-15.35-.52-23-.68-7.89-.16-15.84-.25-23.66-.27V20.08c7.93,0,15.93.06,23.81.22,7.58.16,15.26.41,22.82.74a8.11,8.11,0,0,1,.09,1.21A5.63,5.63,0,0,1,48,23.25Z"/></svg>
